X: 6294
T: Carraig An tSoip
R: jig
M: 6/8
K: Gmajor
|:A|B{c}BA G{c}GE|~D3 FED|BGB dBG|F2 A AGA|
ABG AGE|~D3 FED|BGB dBG|AGF G2:|
|:G|ABd dBd|efg ged|A2 e dBA|F2 A AGA|
B2 d dBd|g3 ged|ABe dBA|AGF G2:|

